X: 30153
T: Old Corcomroe
R: reel
M: 4/4
K: Dmixolydian
|:Addc AGFG|Add^c defg|a2ge aged|cedc AGFG|
Addc AGFG|Add^c defg|a2ge age=c|Add^c d2dc:|
|:D2FA d^cdB|=cAAG AGED|C2EG cedc|AEGE CEDC|
A,DFA d^cdB|=cAAG AGED|C2EG cedc|AEGE D2DC:|

